packages/sources/icons/src/vitamix/apple-fill.svg

<svg width="16" height="16" viewBox="0 0 16 16" fill="none" xmlns="http://www.w3.org/2000/svg">
<path fill-rule="evenodd" clip-rule="evenodd" d="M10.5974 0.566681C10.6934 1.43068 10.3494 2.30268 9.82939 2.92668C9.30939 3.55068 8.46139 4.03868 7.63739 3.97468C7.52539 3.12668 7.94139 2.23868 8.42139 1.68668C8.95739 1.06268 9.85339 0.598681 10.5974 0.566681ZM6.83607 4.55226C7.18552 4.69096 7.49723 4.81467 7.74931 4.81467C7.97077 4.81467 8.25964 4.70115 8.60137 4.56684C9.14844 4.35184 9.83099 4.08358 10.5893 4.14267C11.0613 4.17467 12.4133 4.31867 13.2933 5.60667C13.2213 5.64668 11.6773 6.54268 11.6933 8.41468C11.7173 10.6547 13.6533 11.3987 13.6773 11.4067C13.6613 11.4627 13.3653 12.4707 12.6533 13.5107C12.0373 14.4147 11.3973 15.3107 10.3893 15.3267C9.90249 15.3385 9.57751 15.198 9.23944 15.0519C8.88864 14.9004 8.52375 14.7427 7.94931 14.7427C7.33892 14.7427 6.95487 14.9067 6.58496 15.0646C6.26643 15.2006 5.95838 15.3322 5.52531 15.3507C4.54931 15.3827 3.81331 14.3747 3.18931 13.4787C1.91731 11.6387 0.949313 8.29467 2.25331 6.03067C2.90131 4.90267 4.05331 4.19067 5.30931 4.17467C5.85038 4.16103 6.37595 4.36963 6.83607 4.55226Z" fill="#001018"/>
</svg>

<svg width="16" height="16" fill="none" xmlns="http://www.w3.org/2000/svg"><path fill-rule="evenodd" clip-rule="evenodd" d="M10.597.567c.096.864-.248 1.736-.768 2.36-.52.624-1.368 1.112-2.192 1.048-.112-.848.304-1.736.784-2.288.536-.624 1.432-1.088 2.176-1.12zm-3.76 3.985c.349.139.66.263.912.263.222 0 .51-.114.852-.248.547-.215 1.23-.483 1.988-.424.472.032 1.824.176 2.704 1.464-.072.04-1.616.936-1.6 2.808.024 2.24 1.96 2.984 1.984 2.992a8.04 8.04 0 0 1-1.024 2.104c-.616.904-1.256 1.8-2.264 1.816-.487.011-.811-.129-1.15-.275-.35-.152-.715-.31-1.29-.31-.61 0-.994.165-1.364.323-.319.136-.627.267-1.06.286-.976.032-1.712-.976-2.336-1.872-1.272-1.84-2.24-5.184-.936-7.448.648-1.128 1.8-1.84 3.056-1.856.541-.014 1.067.195 1.527.377z" fill="#001018"/></svg>
